!!!OTL: Gua hongdeng
!!!ARE: Asia, China,ÿShandong Xintai
!! III, 355
!!!SCT: C1775
!!!YEM: Copyright 1995, estate of Helmut Schaffrath.
**kern
*ICvox
*Ivox
*M2/4
*k[f#c#g#]
*A:
{8cc#
8cc#
8ff#
16gg#
16ff#
=1
8ee
8cc#
4b}
=2
{8cc#
8cc#
8f#
8cc#
=3
8b
16cc#
16b
4a}
=4
{8f#
8ee
8cc#
8cc#
=5
8b
8b
8b
8g#
=6
8f#
8f#
4e}
=7
{8f#
8f#
8b
8b
=8
8c#
8g#
4f#
=9
8a
8c#
4e}
==
!!!AGN: Xiaodiao, Yangge diao
!!!AMT: simple duple
!!!AIN: vox
!!!EED: Helmut Schaffrath
!!!EEV: 1.0
*-
